src/main/resources/static/img/dropmenu/gruppe.svg

<svg xmlns="http://www.w3.org/2000/svg" xmlns:xlink="http://www.w3.org/1999/xlink" viewBox="0,0,256,256" width="72px" height="72px" fill-rule="nonzero"><g transform=""><g fill-opacity="0" fill="#ffffff" fill-rule="nonzero" stroke="none" stroke-width="1" stroke-linecap="butt" stroke-linejoin="miter" stroke-miterlimit="10" stroke-dasharray="" stroke-dashoffset="0" font-family="none" font-weight="none" font-size="none" text-anchor="none" style="mix-blend-mode: normal"><path d="M0,256v-256h256v256z" id="bgRectangle"></path></g><g fill="#000000" fill-rule="nonzero" stroke="none" stroke-width="1" stroke-linecap="butt" stroke-linejoin="miter" stroke-miterlimit="10" stroke-dasharray="" stroke-dashoffset="0" font-family="none" font-weight="none" font-size="none" text-anchor="none" style="mix-blend-mode: normal"><g transform="scale(10.66667,10.66667)"><path d="M7.86872,11.2988l-4.05524,2.08744c-0.49953,0.25713 -0.81349,0.77185 -0.81349,1.33368v0.78009c0,0.82844 0.67158,1.5 1.50007,1.5c0.27614,0 0.5,0.22386 0.5,0.5c0,0.27614 -0.22386,0.5 -0.5,0.5c-1.38077,0 -2.50007,-1.11927 -2.50007,-2.5v-0.78009c0,-0.93637 0.52326,-1.79424 1.35581,-2.2228l3.35774,-1.7284c-1.07169,-0.93442 -1.71356,-2.29641 -1.71356,-3.76871c0,-2.76142 2.23858,-5 5,-5c1.67659,0 3.21322,0.83195 4.13795,2.19255c0.15522,0.22839 0.09591,0.53936 -0.13247,0.69459c-0.22839,0.15522 -0.53936,0.09591 -0.69459,-0.13247c-0.74049,-1.08952 -1.96903,-1.75466 -3.31089,-1.75466c-2.20914,0 -4,1.79086 -4,4c0,1.41171 0.7368,2.69567 1.92027,3.41759c0.23574,0.1438 0.31027,0.45149 0.16647,0.68723c-0.05383,0.08825 -0.13063,0.1539 -0.21802,0.19398zM11.96127,15.56684l-4.08197,1.85544c-0.53549,0.24341 -0.8793,0.77733 -0.8793,1.36555v0.71217c0,0.82843 0.67157,1.5 1.5,1.5h11c0.82843,0 1.5,-0.67157 1.5,-1.5v-0.71217c0,-0.58822 -0.3438,-1.12214 -0.8793,-1.36555l-4.08197,-1.85544c-0.62263,0.27838 -1.31261,0.43316 -2.03873,0.43316c-0.72613,0 -1.41611,-0.15479 -2.03873,-0.43316zM10.92216,14.9407c-1.17007,-0.91516 -1.92216,-2.3401 -1.92216,-3.9407c0,-2.76142 2.23858,-5 5,-5c2.76142,0 5,2.23858 5,5c0,1.6006 -0.75209,3.02554 -1.92216,3.9407l3.45667,1.57121c0.89249,0.40568 1.46549,1.29556 1.46549,2.27592v0.71217c0,1.38071 -1.11929,2.5 -2.5,2.5h-11c-1.38071,0 -2.5,-1.11929 -2.5,-2.5v-0.71217c0,-0.98036 0.57301,-1.87024 1.46549,-2.27592l3.45667,-1.57121zM14,15c2.20914,0 4,-1.79086 4,-4c0,-2.20914 -1.79086,-4 -4,-4c-2.20914,0 -4,1.79086 -4,4c0,2.20914 1.79086,4 4,4z"></path></g></g></g></svg>

<svg xmlns="http://www.w3.org/2000/svg" width="72" height="72" viewBox="0 0 256 256"><g stroke-miterlimit="10" font-family="none" font-size="none" font-weight="none" text-anchor="none"><path fill="none" fill-opacity="0" d="M-9.634 265.634V-9.634h275.268v275.268z" style="mix-blend-mode:normal" transform="matrix(.93 0 0 .93 8.96 8.96)"/><path fill="#333" d="m7.869 11.299-4.056 2.087A1.5 1.5 0 0 0 3 14.72v.78A1.5 1.5 0 0 0 4.5 17a.5.5 0 0 1 0 1A2.5 2.5 0 0 1 2 15.5v-.78a2.5 2.5 0 0 1 1.356-2.223l3.358-1.728a5 5 0 1 1 7.424-6.576.5.5 0 0 1-.827.562 4 4 0 1 0-5.39 5.663.5.5 0 0 1-.052.88zm4.092 4.268L7.88 17.422A1.5 1.5 0 0 0 7 18.788v.712A1.5 1.5 0 0 0 8.5 21h11a1.5 1.5 0 0 0 1.5-1.5v-.712a1.5 1.5 0 0 0-.88-1.366l-4.081-1.855A4.982 4.982 0 0 1 14 16a4.982 4.982 0 0 1-2.039-.433zm-1.039-.626a5 5 0 1 1 6.156 0l3.457 1.57A2.5 2.5 0 0 1 22 18.789v.712a2.5 2.5 0 0 1-2.5 2.5h-11A2.5 2.5 0 0 1 6 19.5v-.712a2.5 2.5 0 0 1 1.465-2.276l3.457-1.571zM14 15a4 4 0 1 0 0-8 4 4 0 0 0 0 8z" style="mix-blend-mode:normal" transform="matrix(9.92 0 0 9.92 8.96 8.96)"/></g></svg>
